Adwaita++/emotes/symbolic/face-angel-symbolic.svg

<svg height="16" width="16" xmlns="http://www.w3.org/2000/svg">
  <g fill="#474747">
    <path d="m2.188 4.094a6.937 6.937 0 0 0 -1.188 3.906 7 7 0 0 0 14 0c0-1.45-.433-2.789-1.188-3.906-.198.135-.424.25-.624.343-.85.395-1.855.563-2.938.563h-4.5c-1.083 0-2.087-.168-2.938-.563a4.443 4.443 0 0 1 -.624-.343zm3.812 1.906c.558 0 1.031.473 1.031 1.031v.969c0 .558-.473 1-1.031 1s-1-.442-1-1v-.969c0-.558.442-1.031 1-1.031zm4 0c.558 0 1 .473 1 1.031v.969c0 .558-.442 1-1 1s-1-.442-1-1v-.969c0-.558.442-1.031 1-1.031zm-7 3.063c.715 1.073 2.235 1.937 5 1.937 2.452 0 4.21-.75 5-1.938v.5c0 .681-.838 2.407-5 2.407-3.88 0-5-1.874-5-2.406z"/>
    <path d="m5.736 0c-.958 0-1.826.172-2.5.484-.673.312-1.236.811-1.236 1.516s.563 1.204 1.236 1.516c.674.312 1.542.484 2.5.484h4.528c.958 0 1.826-.172 2.5-.484.673-.312 1.236-.811 1.236-1.516s-.563-1.204-1.236-1.516c-.674-.312-1.542-.484-2.5-.484zm0 1h4.528c.834 0 1.583.162 2.08.393.496.23.656.481.656.607s-.16.377-.656.607c-.497.23-1.246.393-2.08.393h-4.528c-.834 0-1.583-.162-2.08-.393-.496-.23-.656-.481-.656-.607s.16-.377.656-.607c.497-.23 1.246-.393 2.08-.393z"/>
  </g>
</svg>

<svg xmlns="http://www.w3.org/2000/svg" width="16" height="16">
    <g fill="#474747">
        <path d="M2.188 4.094A6.937 6.937 0 0 0 1 8a7 7 0 0 0 14 0c0-1.45-.433-2.789-1.188-3.906-.198.135-.424.25-.624.343-.85.395-1.855.563-2.938.563h-4.5c-1.083 0-2.087-.168-2.938-.563a4.443 4.443 0 0 1-.624-.343zM6 6c.558 0 1.031.473 1.031 1.031V8c0 .558-.473 1-1.031 1-.558 0-1-.442-1-1v-.969C5 6.473 5.442 6 6 6zm4 0c.558 0 1 .473 1 1.031V8c0 .558-.442 1-1 1s-1-.442-1-1v-.969C9 6.473 9.442 6 10 6zM3 9.063C3.715 10.136 5.235 11 8 11c2.452 0 4.21-.75 5-1.938v.5c0 .681-.838 2.407-5 2.407-3.88 0-5-1.874-5-2.406z"/>
        <path d="M5.736 0c-.958 0-1.826.172-2.5.484C2.563.796 2 1.295 2 2s.563 1.204 1.236 1.516c.674.312 1.542.484 2.5.484h4.528c.958 0 1.826-.172 2.5-.484C13.437 3.204 14 2.705 14 2S13.437.796 12.764.484C12.09.172 11.222 0 10.264 0zm0 1h4.528c.834 0 1.583.162 2.08.393.496.23.656.481.656.607s-.16.377-.656.607c-.497.23-1.246.393-2.08.393H5.736c-.834 0-1.583-.162-2.08-.393C3.16 2.377 3 2.126 3 2s.16-.377.656-.607C4.153 1.163 4.902 1 5.736 1z" style="line-height:normal;font-variant-ligatures:normal;font-variant-position:normal;font-variant-caps:normal;font-variant-numeric:normal;font-variant-alternates:normal;font-feature-settings:normal;text-indent:0;text-align:start;text-decoration-line:none;text-decoration-style:solid;text-decoration-color:#000;text-transform:none;text-orientation:mixed;shape-padding:0;isolation:auto;mix-blend-mode:normal;marker:none" color="#000" font-weight="400" font-family="sans-serif" white-space="normal" overflow="visible"/>
    </g>
</svg>
